16x16/apps/datovka.svg

<svg xmlns="http://www.w3.org/2000/svg" width="16" height="16" version="1">
 <rect style="fill:#00539b" width="16" height="16" x="0" y="0" rx="4.8" ry="4.8"/>
 <path style="fill:#ffcb05" d="M 5.5597983,3 4.9185221,7 H 7.9914387 L 8.225,5.2916667 10.1,8 7.3916667,10.5 7.6922931,9 H 4.5917068 L 3.85,13 H 7.1629883 C 10.491273,12.846819 12.539468,10.911875 12.94668,8.2449546 13.305642,5.8940396 12.339226,3.2710892 8.6229492,3 Z"/>
</svg>

<svg xmlns="http://www.w3.org/2000/svg" width="16" height="16" version="1"><rect style="fill:#00539b" width="16" height="16" rx="4.8" ry="4.8"/><path style="fill:#ffcb05" d="m5.56 3-.641 4H7.99l.234-1.708L10.1 8l-2.708 2.5.3-1.5h-3.1l-.742 4h3.313c3.328-.153 5.376-2.088 5.784-4.755.359-2.351-.608-4.974-4.324-5.245z"/></svg>
